X:1
T:Title
%%score { ( 1 3 4 ) | ( 2 5 6 ) }
L:1/8
Q:1/4=94
M:4/4
K:F
V:1 treble nm="Grand Piano"
V:3 treble 
V:4 treble 
V:2 bass 
V:5 bass 
V:6 bass 
V:1
 F>F F>F D C2 C | F>F F>A c4 | [Fd]>[Fd] [Fd]>[Fd] c>c c>A | [GB]2 [FA]2 [EG]4 | F>F F>F D C2 C | %5
w: C.~Austin~Miles * * * * * *|||||
 F>F F>A c4 | c>c c>[DFB] [CFA]2 [B,EG]2 |[M:11/16] [A,F]/-[A,F]/-[A,F]/-[A,F]/-[A,F]-<[A,F] z/ z | %8
w: |||
[M:5/16] A<AB/ |[M:4/4] c3 d z4 | c2 d2 c2 [GB][FA] | [EG]2 [FA]2 [GB]2 [Ac]2 | %12
w: ||||
 [ce]>[Bd] [Ac]>B A2 A>A | c2 c>d c A2 A | %14
w: ||
[M:35/32] B2 c2 [Fd]2 [Fd]-(3:2:4[Fd]3/2-[Fd]/4[Fd]3/4-[Fd]/8 | %15
w: |
[M:4/4] (5:4:5c2 c/ c/-c3/2[DFB]/ z4 | [A,F]6- [A,F]/4 z/4 z/ z |] %17
w: ||
V:2
 [F,A,C]>[F,A,C] [F,A,C]>[F,A,C] [F,B,] [F,A,]2 [F,A,] | [F,A,C]>[F,A,C] [F,A,C]>[F,CF] [F,A,F]4 | %2
 [B,,B,]>[B,,B,] [B,,B,]>[B,,B,] [F,A,F]>[F,A,F] [F,A,F]>[F,CF] | [E,C]2 [F,C]2 [C,C]4 | %4
 [F,A,C]>[F,A,C] [F,A,C]>[F,A,C] [F,B,] [F,A,]2 [F,A,] | [F,A,C]>[F,A,C] [F,A,C]>[F,CF] [F,A,F]4 | %6
 [F,A,F]>[F,A,F] [F,A,F]>B,, C,2 C,2 |[M:11/16] F,/-F,/-F,/-F,/-F,-<F, z/ z | %8
[M:5/16][K:treble] F<FG/ |[M:4/4] A3[K:bass][K:treble] B z4 | %10
 [F,A,F]2 [F,B,F]2 [F,A,F]2 [E,C][F,C] | [C,C]2 [C,C]2 [C,C]2 [C,C]2 | %12
 [C,C]2 z z/[K:treble] G/ [F,CF]2 [F,CF]>[F,CF] | %13
 [F,A,F]2[K:bass] [F,A,F]>[F,B,F] [F,A,F] [F,CF]2 [F,C_E] | %14
[M:35/32] [B,D]2 [F,A,F]2 [B,,B,]2 [B,,B,]-(3:2:4[B,,B,]3/2-[B,,B,]/4[B,,B,]3/4-[B,,B,]/8 | %15
[M:4/4] (5:4:5[F,A,F]2 [F,A,F]/ [F,A,F]/-[F,A,F]3/2B,,/ C,2 z2 | F,6- F,/4 z/4 z/ z |] %17
V:3
 x8 | x8 | x8 | x8 | x8 | x8 | x8 |[M:11/16] x11/2 |[M:5/16] x5/2 | %9
[M:4/4] z z/ F/ z z/ F/ [Ac]>B A>B | x8 | x8 | x8 | x8 |[M:35/32] x35/4 | %15
[M:4/4] z4 [CFA]2- [CFA]/4 z/4 z/ z | x8 |] %17
V:4
 x8 | x8 | x8 | x8 | x8 | x8 | x8 |[M:11/16] x11/2 |[M:5/16] x5/2 |[M:4/4] z2 F2 z4 | x8 | x8 | %12
 x8 | x8 |[M:35/32] x35/4 |[M:4/4] z4 z2 [B,EG]2- | [B,EG]3/4 z/4 z z2 z4 |] %17
V:5
 x8 | x8 | x8 | x8 | x8 | x8 | x8 |[M:11/16] x11/2 |[M:5/16][K:treble] x5/2 | %9
[M:4/4] z z/[K:bass] F,/ z[K:treble] z/ F,/ z z/ G/ F>G | x8 | x8 | z2 [C,C]2[K:treble] z4 | %13
 x2[K:bass] x6 |[M:35/32] x35/4 |[M:4/4] z4 z2 C,2- | C,3/4 z/4 z z2 z4 |] %17
V:6
 x8 | x8 | x8 | x8 | x8 | x8 | x8 |[M:11/16] x11/2 |[M:5/16][K:treble] x5/2 | %9
[M:4/4] z2[K:bass] F,2[K:treble] [F,F]2 [F,C]2 | x8 | x8 | x7/2[K:treble] x9/2 | x2[K:bass] x6 | %14
[M:35/32] x35/4 |[M:4/4] x8 | x8 |] %17

